img/advantage-1-illustration.svg

<svg xmlns="http://www.w3.org/2000/svg" viewBox="0 0 94.9 94.2"><title>advantage-1-illustration</title><path d="M90.3 28.4a47.2 47.2 0 0 0-8.5-13.1l-2 3.8a43.2 43.2 0 0 1 6.4 10zM90 43.6c.1 1.2.2 2.3.2 3.5a43.1 43.1 0 0 1-43.1 43.1h-2.4a7.5 7.5 0 0 1 .2 1.8 6.6 6.6 0 0 1-.4 2.2H47a47 47 0 0 0 46.7-53.3 38.3 38.3 0 0 1-3.7 2.7zM4 47.1A43.1 43.1 0 0 1 68.7 9.8L72 7.2a47.1 47.1 0 1 0-42.3 83.6 18.2 18.2 0 0 1-.6-4.6A43.1 43.1 0 0 1 4 47.1z" fill="#826550"/><path d="M38.8 84.9c7.7-2.7 16.3-9.7 14.5-19.8-.9-5.1-4.5-5-7.3-9.3 14.4-12 24.2-28.7 33-46.3h-2c-7.4 5.7-21.9 17-28.4 26.4-2.6 3.8-4.6 9.3-7.3 13.9-4.5 7.7-15.1 21.2-6.6 31.1-1.4 4.6-1.2 12.4 4 12.6 3.3-1.7-1.3-4.6.1-8.6zm8.3-38.8a2.6 2.6 0 1 1-2.6 2.6 2.6 2.6 0 0 1 2.6-2.6zM36.8 75c-1.9-9 7-17 11.9-9.3.2 7.5-6.2 15.8-11.9 9.3z" fill="#826550"/><path d="M56 51.2c14-5.2 30.6-7.8 39-18.5-9.4 1.4-18.1 3.5-27.8 4.6-2.1 6.3-7 9.7-11.2 13.9zM12.3 40c-4.2 12.2 8.5 16 21.8 13.8 3.8-4.8 5.8-10 2-15.9-4.9-7.4-20.9-6.3-23.8 2.1zm5.3 7.3C12.5 36.4 30.5 36.2 32.2 42c2.1 7.6-9.1 8-14.6 5.2z" fill="#826550"/></svg>

<svg xmlns="http://www.w3.org/2000/svg" viewBox="0 0 94.9 94.2"><title>advantage-1-illustration</title><path d="M90.3,28.4a47.2,47.2,0,0,0-8.5-13.1l-2,3.8a43.2,43.2,0,0,1,6.4,10Z" fill="#826550"/><path d="M90,43.6c0.1,1.2.2,2.3,0.2,3.5A43.1,43.1,0,0,1,47.1,90.2H44.7a7.5,7.5,0,0,1,.2,1.8,6.6,6.6,0,0,1-.4,2.2h2.5A47,47,0,0,0,93.7,40.9,38.3,38.3,0,0,1,90,43.6Z" fill="#826550"/><path d="M4,47.1A43.1,43.1,0,0,1,68.7,9.8L72,7.2A47.1,47.1,0,1,0,29.7,90.8a18.2,18.2,0,0,1-.6-4.6A43.1,43.1,0,0,1,4,47.1Z" fill="#826550"/><path d="M38.8,84.9c7.7-2.7,16.3-9.7,14.5-19.8-0.9-5.1-4.5-5-7.3-9.3,14.4-12,24.2-28.7,33-46.3h-2c-7.4,5.7-21.9,17-28.4,26.4-2.6,3.8-4.6,9.3-7.3,13.9-4.5,7.7-15.1,21.2-6.6,31.1-1.4,4.6-1.2,12.4,4,12.6C42,91.8,37.4,88.9,38.8,84.9Zm8.3-38.8a2.6,2.6,0,1,1-2.6,2.6A2.6,2.6,0,0,1,47.1,46.1ZM36.8,75c-1.9-9,7-17,11.9-9.3C48.9,73.2,42.5,81.5,36.8,75Z" fill="#826550"/><path d="M56,51.2c14-5.2,30.6-7.8,39-18.5-9.4,1.4-18.1,3.5-27.8,4.6C65.1,43.6,60.2,47,56,51.2Z" fill="#826550"/><path d="M12.3,40C8.1,52.2,20.8,56,34.1,53.8c3.8-4.8,5.8-10,2-15.9C31.2,30.5,15.2,31.6,12.3,40Zm5.3,7.3C12.5,36.4,30.5,36.2,32.2,42,34.3,49.6,23.1,50,17.6,47.2Z" fill="#826550"/></svg>
